X: 108
T: No_44_It_Is_Time_to_Pay_Your_Wager.krn
N: Derived from No_44_It_Is_Time_to_Pay_Your_Wager.krn
%%abc-version 2.0
%%abcx-abcm2ps-target-version 5.9.1 (29 Sep 2008)
%%abc-creator hum2abc beta
%%abcx-conversion-date 2019/03/15 08:37:56
%%humdrum-veritas 238047771
%%humdrum-veritas-data 1420351244
%%linebreak <none>
%%barnumbers 0
L: 1/16
M: 2/4
K: C clef=bass
[K:clef=bass][M:2/4]E3C B,A,B,2 [I:setbarnb 2]| 
B,8 | 
E3C B,A,B,2 ||  
[M:3/4]B,4-B,A,A,2 A,G,A,2 ||  
[M:2/4]A,4z3 A, ||  
[M:3/4]A,2B,3/B,/ B,A,3 A,/A,3/A,A, | 
B,2A,2 B,2A,2 B,A,A, z ||  
[M:2/4]C3C B,A,B,2 ||  
[M:3/4]B,4-B,A,A,2 A,G,A,2 ||  
[M:2/4]A,8 :|]  



